src/assets/cards/2H.svg

<svg clip-rule="evenodd" fill-rule="evenodd" stroke-linejoin="round" stroke-miterlimit="2" viewBox="0 0 934 1300" xmlns="http://www.w3.org/2000/svg"><g fill="#d40000" fill-rule="nonzero"><path d="m39.442 251.338c-6.583-14.467-7.333-39.188 12.375-42.534 14.834-1.908 20.875 4.996 22.084 15.592.583 3.096 2.333 3.287 2.916-.242.834-10.875 11.584-17.221 20-15.625 23.042 3.938 21.709 29.284 14.167 46.479-11.375 22.834-23.333 37.242-34.333 60.217-12.667-23.921-27.125-43.354-37.209-63.887z"/><path d="m821.609 1048.3c-6.583 14.47-7.292 39.19 12.417 42.54 14.833 1.91 20.875-4.99 22.083-15.59.583-3.1 2.333-3.29 2.875.24.833 10.87 11.625 17.22 20.042 15.62 23-3.94 21.666-29.28 14.125-46.48-11.375-22.83-23.334-37.24-34.334-60.213-12.666 23.923-27.125 43.353-37.208 63.883z"/><path d="m36.03 194.713.69-8.417c2.12-25.992 7.815-34.773 40.091-61.894 15.668-13.159 20.811-19.657 21.526-27.196 2.045-17.75-13.961-23.294-24.386-23.382-13.51-.126-28.789 7.965-21.513 26.719l-15.153 4.453c-3.049-17.499.075-33.932 14.275-41.22 18.942-9.496 43.252-5.771 55.521 9.195 8.241 10.06 10.11 23.947 5.695 34.81-12.921 27.798-56.75 40.029-60.376 72.167h48.459v-17.888h14.275v32.941z"/><path d="m896.552 1105.29-.69 8.4c-2.12 26.01-7.815 34.79-40.092 61.91-15.667 13.16-20.81 19.64-21.538 27.18-2.045 17.75 13.974 23.3 24.399 23.4 13.51.12 28.789-7.97 21.5-26.74l15.154-4.44c3.061 17.5-.063 33.92-14.263 41.22-18.942 9.5-43.253 5.78-55.521-9.19-8.241-10.06-10.11-23.95-5.695-34.82 12.921-27.8 56.75-40.02 60.376-72.17h-48.459v17.9h-14.275v-32.94z"/><path d="m416.466 116.037c29.75-1.975 45.292 23.45 48.333 43.488 1.792 3.183 2.792 2.283 3.459-.175 1.458-25.729 24.5-46.754 45.791-43.879 34.709.454 55.792 39.066 49.875 71.746-7.25 39.925-28.75 63.962-45.041 88.72-18.417 25.638-43.209 62.667-51.209 80.488 0 0-25.208-38.35-57.958-83.458-21.958-30.159-39.5-62.842-41.125-90.98-1.875-32.145 11.333-60.966 47.875-65.95z"/><path d="m416.466 1183.96c29.75 1.98 45.292-23.45 48.333-43.48 1.792-3.19 2.792-2.29 3.459.17 1.458 25.73 24.5 46.75 45.791 43.88 34.709-.45 55.792-39.07 49.875-71.75-7.25-39.92-28.75-63.96-45.041-88.72-18.417-25.631-43.209-62.664-51.209-80.485 0 0-25.208 38.354-57.958 83.455-21.958 30.16-39.5 62.85-41.125 90.98-1.875 32.15 11.333 60.97 47.875 65.95z"/></g></svg>

<?xml version="1.0" encoding="UTF-8" standalone="no"?>
<!DOCTYPE svg PUBLIC "-//W3C//DTD SVG 1.1//EN" "http://www.w3.org/Graphics/SVG/1.1/DTD/svg11.dtd">
<svg width="100%" height="100%" viewBox="0 0 934 1300" version="1.1" xmlns="http://www.w3.org/2000/svg" xmlns:xlink="http://www.w3.org/1999/xlink" xml:space="preserve" xmlns:serif="http://www.serif.com/" style="fill-rule:evenodd;clip-rule:evenodd;stroke-linejoin:round;stroke-miterlimit:2;">
    <g>
        <path d="M39.442,251.338C32.859,236.871 32.109,212.15 51.817,208.804C66.651,206.896 72.692,213.8 73.901,224.396C74.484,227.492 76.234,227.683 76.817,224.154C77.651,213.279 88.401,206.933 96.817,208.529C119.859,212.467 118.526,237.813 110.984,255.008C99.609,277.842 87.651,292.25 76.651,315.225C63.984,291.304 49.526,271.871 39.442,251.338Z" style="fill:rgb(212,0,0);fill-rule:nonzero;"/>
        <path d="M821.609,1048.3C815.026,1062.77 814.317,1087.49 834.026,1090.84C848.859,1092.75 854.901,1085.85 856.109,1075.25C856.692,1072.15 858.442,1071.96 858.984,1075.49C859.817,1086.36 870.609,1092.71 879.026,1091.11C902.026,1087.17 900.692,1061.83 893.151,1044.63C881.776,1021.8 869.817,1007.39 858.817,984.417C846.151,1008.34 831.692,1027.77 821.609,1048.3Z" style="fill:rgb(212,0,0);fill-rule:nonzero;"/>
        <path d="M36.03,194.713L36.72,186.296C38.84,160.304 44.535,151.523 76.811,124.402C92.479,111.243 97.622,104.745 98.337,97.206C100.382,79.456 84.376,73.912 73.951,73.824C60.441,73.698 45.162,81.789 52.438,100.543L37.285,104.996C34.236,87.497 37.36,71.064 51.56,63.776C70.502,54.28 94.812,58.005 107.081,72.971C115.322,83.031 117.191,96.918 112.776,107.781C99.855,135.579 56.026,147.81 52.4,179.948L100.859,179.948L100.859,162.06L115.134,162.06L115.134,195.001L36.03,194.713Z" style="fill:rgb(212,0,0);fill-rule:nonzero;"/>
        <path d="M896.552,1105.29L895.862,1113.69C893.742,1139.7 888.047,1148.48 855.77,1175.6C840.103,1188.76 834.96,1195.24 834.232,1202.78C832.187,1220.53 848.206,1226.08 858.631,1226.18C872.141,1226.3 887.42,1218.21 880.131,1199.44L895.285,1195C898.346,1212.5 895.222,1228.92 881.022,1236.22C862.08,1245.72 837.769,1242 825.501,1227.03C817.26,1216.97 815.391,1203.08 819.806,1192.21C832.727,1164.41 876.556,1152.19 880.182,1120.04L831.723,1120.04L831.723,1137.94L817.448,1137.94L817.448,1105L896.552,1105.29Z" style="fill:rgb(212,0,0);fill-rule:nonzero;"/>
        <path d="M416.466,116.037C446.216,114.062 461.758,139.487 464.799,159.525C466.591,162.708 467.591,161.808 468.258,159.35C469.716,133.621 492.758,112.596 514.049,115.471C548.758,115.925 569.841,154.537 563.924,187.217C556.674,227.142 535.174,251.179 518.883,275.937C500.466,301.575 475.674,338.604 467.674,356.425C467.674,356.425 442.466,318.075 409.716,272.967C387.758,242.808 370.216,210.125 368.591,181.987C366.716,149.842 379.924,121.021 416.466,116.037Z" style="fill:rgb(212,0,0);fill-rule:nonzero;"/>
        <path d="M416.466,1183.96C446.216,1185.94 461.758,1160.51 464.799,1140.48C466.591,1137.29 467.591,1138.19 468.258,1140.65C469.716,1166.38 492.758,1187.4 514.049,1184.53C548.758,1184.08 569.841,1145.46 563.924,1112.78C556.674,1072.86 535.174,1048.82 518.883,1024.06C500.466,998.429 475.674,961.396 467.674,943.575C467.674,943.575 442.466,981.929 409.716,1027.03C387.758,1057.19 370.216,1089.88 368.591,1118.01C366.716,1150.16 379.924,1178.98 416.466,1183.96Z" style="fill:rgb(212,0,0);fill-rule:nonzero;"/>
    </g>
</svg>
